images/illustrations/loyalty.svg

<svg width="48" height="48" viewBox="0 0 48 48" fill="none" xmlns="http://www.w3.org/2000/svg">
<path d="M23.2929 14.2341L24 14.9412L24.7071 14.2341C29.0019 9.93933 33.3291 9.27689 36.479 10.6353C39.6609 12.0075 42 15.5891 42 20.527C42 23.1158 40.9268 25.6619 39.2161 28.0692C37.5074 30.4737 35.2081 32.6745 32.8737 34.5498C30.5438 36.4216 28.2085 37.9455 26.453 39.0025C25.5762 39.5304 24.8467 39.9402 24.3382 40.2171C24.2113 40.2862 24.0981 40.347 24 40.3993C23.9019 40.347 23.7887 40.2862 23.6618 40.2171C23.1533 39.9402 22.4238 39.5304 21.547 39.0025C19.7915 37.9455 17.4562 36.4216 15.1263 34.5498C12.7919 32.6745 10.4926 30.4737 8.78389 28.0692C7.0732 25.6619 6 23.1158 6 20.527C6 15.5891 8.33904 12.0075 11.521 10.6352C14.6708 9.27682 18.9981 9.93926 23.2929 14.2341Z" stroke="#FF0033" stroke-width="2"/>
<path d="M36.5 21.5C36.5 18.4624 34.0376 16 31 16" stroke="white" stroke-width="2"/>
</svg>

<svg width="48" height="48" fill="none" xmlns="http://www.w3.org/2000/svg"><path d="M23.293 14.234l.707.707.707-.707c4.295-4.295 8.622-4.957 11.772-3.599C39.661 12.008 42 15.59 42 20.527c0 2.589-1.073 5.135-2.784 7.542-1.709 2.405-4.008 4.606-6.342 6.48-2.33 1.873-4.666 3.397-6.421 4.453A56.844 56.844 0 0124 40.4a56.844 56.844 0 01-2.453-1.397c-1.756-1.056-4.09-2.58-6.42-4.452-2.335-1.875-4.634-4.076-6.343-6.48C7.074 25.661 6 23.115 6 20.526c0-4.938 2.339-8.52 5.521-9.892 3.15-1.358 7.477-.696 11.772 3.6z" stroke="#F03" stroke-width="2"/><path d="M36.5 21.5A5.5 5.5 0 0031 16" stroke="#fff" stroke-width="2"/></svg>
